src/status/24/fcitx-pinyin.svg

<svg xmlns="http://www.w3.org/2000/svg" viewBox="0 0 24 24" width="24" height="24">
  <defs id="defs3051">
    <style type="text/css" id="current-color-scheme">
      .ColorScheme-Text {
        color:#f2f2f2;
      }
      </style>
  </defs>
  <g transform="translate(1,1)">
    <path style="fill:currentColor;fill-opacity:1;stroke:none" d="M 3 3.0019531 L 3 19 L 19 19 L 19 3.0019531 L 3 3.0019531 z M 4 4 L 18 4 L 18 18 L 4 18 L 4 4 z M 10.900391 4.7011719 L 10.099609 5.3007812 L 11.375 7 L 10 7 L 10 8 L 11 8 L 11 11 L 9.1171875 11 L 9.2226562 10.947266 L 8.7773438 10.052734 L 8 10.441406 L 8 8 L 9 8 L 9 7 L 8 7 L 8 5 L 7 5 L 7 7 L 5 7 L 5 8 L 7 8 L 7 10.941406 L 4.7773438 12.052734 L 5.2226562 12.947266 L 7 12.058594 L 7 16 L 5 16 L 5 17 L 8 17 L 8 11.558594 L 9 11.058594 L 9 12 L 10.960938 12 C 10.872261 12.895032 10.569285 13.61152 10.167969 14.306641 C 9.6706537 15.167941 8.6582031 16.136719 8.6582031 16.136719 L 9.3417969 16.865234 C 9.3417969 16.865234 10.412486 15.881641 11.033203 14.806641 C 11.481893 14.02943 11.862844 13.118701 11.958984 12 L 14 12 L 14 17 L 15 17 L 15 12 L 17 12 L 17 11 L 15 11 L 15 8 L 17 8 L 17 7 L 14.625 7 L 15.900391 5.3007812 L 15.099609 4.7011719 L 13.599609 6.7011719 L 13.998047 7 L 12.001953 7 L 12.400391 6.7011719 L 10.900391 4.7011719 z M 12 8 L 14 8 L 14 11 L 12 11 L 12 8 z " class="ColorScheme-Text"/>
  </g>
</svg>

<svg width="24" height="24" version="1.1" viewBox="0 0 24 24" xmlns="http://www.w3.org/2000/svg">
 <defs>
  <style id="current-color-scheme" type="text/css">.ColorScheme-Text {
        color:#f2f2f2;
      }</style>
 </defs>
 <g transform="translate(1,1)" class="ColorScheme-Text" fill="currentColor">
  <path class="ColorScheme-Text" d="m10.9 4.7012-0.80078 0.59961 1.2754 1.6992h-1.375v1h1v3h-1.8828l0.10547-0.052734-0.44531-0.89453-0.77734 0.38867v-2.4414h1v-1h-1v-2h-1v2h-2v1h2v2.9414l-2.2227 1.1113 0.44531 0.89453 1.7773-0.88867v3.9414h-2v1h3v-5.4414l1-0.5v0.94141h1.9609c-0.08868 0.89503-0.39165 1.6115-0.79297 2.3066-0.49732 0.8613-1.5098 1.8301-1.5098 1.8301l0.68359 0.72852s1.0707-0.98359 1.6914-2.0586c0.44869-0.77721 0.82964-1.6879 0.92578-2.8066h2.041v5h1v-5h2v-1h-2v-3h2v-1h-2.375l1.2754-1.6992-0.80078-0.59961-1.5 2 0.39844 0.29883h-1.9961l0.39844-0.29883zm1.0996 3.2988h2v3h-2z"/>
  <path class="ColorScheme-Text" d="m6.0006 3c-1.662 0-3 1.338-3 3v10c0 1.662 1.338 3 3 3h9.9989c1.662 0 3-1.338 3-3v-10c0-1.662-1.338-3-3-3zm0 1h9.9989c1.108 0 2 0.892 2 2v10c0 1.108-0.892 2-2 2h-9.9989c-1.108 0-2-0.892-2-2v-10c0-1.108 0.892-2 2-2z"/>
 </g>
</svg>
